games/files/edge-surf/resources/icons/favicon.svg

<?xml version="1.0" encoding="UTF-8" standalone="no"?>
<svg width="80" height="80" viewBox="0 0 72 72" fill="none" xmlns="http://www.w3.org/2000/svg">
    <g clipPath="url(#clip0)">
        <path d="M35.9999 68.0367C53.6933 68.0367 68.0366 53.6934 68.0366 36C68.0366 18.3066 53.6933 3.96332 35.9999 3.96332C18.3066 3.96332 3.96326 18.3066 3.96326 36C3.96326 53.6934 18.3066 68.0367 35.9999 68.0367Z" fill="#0078D3" />
        <circle cx="36" cy="36" r="35.4" fill="#243A5E" />
        <path d="M32.0904 38.6422C30.8453 38.6422 30.2048 38.1447 29.6382 37.7069C29.1343 37.3156 28.6976 36.9773 27.7929 36.9773C26.8881 36.9773 26.4537 37.3156 25.9475 37.7069C25.3809 38.1447 24.7405 38.6422 23.4953 38.6422C22.2524 38.6422 21.6097 38.1447 21.0453 37.7069C20.5414 37.3156 20.1047 36.9773 19.2022 36.9773C18.2975 36.9773 17.863 37.3156 17.3591 37.7047C16.7926 38.1425 16.1521 38.64 14.9092 38.64C13.6662 38.64 13.0235 38.1425 12.4592 37.7047C11.9553 37.3134 11.5186 36.9773 10.6161 36.9773C9.71356 36.9773 9.27687 37.3156 8.77298 37.7047C8.2064 38.1425 7.5659 38.64 6.32299 38.64C5.08008 38.64 4.43959 38.1425 3.87301 37.7047C3.36912 37.3134 2.93467 36.9773 2.02992 36.9773C1.75894 36.9773 1.53723 36.7606 1.53723 36.4909C1.53723 36.2233 1.7567 36.0044 2.02992 36.0044C3.27283 36.0044 3.91332 36.5019 4.4799 36.9397C4.98379 37.331 5.41825 37.6671 6.32299 37.6671C7.22774 37.6671 7.6622 37.3288 8.16608 36.9397C8.73267 36.5019 9.37316 36.0044 10.6161 36.0044C11.859 36.0044 12.5017 36.5019 13.0661 36.9397C13.5699 37.331 14.0066 37.6671 14.9092 37.6671C15.8139 37.6671 16.2484 37.3288 16.7522 36.9375C17.3188 36.4997 17.9593 36.0022 19.2022 36.0022C20.4451 36.0022 21.0879 36.4997 21.6522 36.9375C22.1561 37.3288 22.5928 37.6649 23.4953 37.6649C24.4001 37.6649 24.8345 37.3266 25.3406 36.9353C25.9072 36.4975 26.5477 36 27.7929 36C29.038 36 29.6785 36.4975 30.2451 36.9353C30.749 37.3266 31.1857 37.6649 32.0904 37.6649C32.3614 37.6649 32.5831 37.8816 32.5831 38.1513C32.5809 38.4233 32.3614 38.6422 32.0904 38.6422Z" fill="#50E5FF" />
        <path d="M31.8702 42.6055C30.6251 42.6055 29.9846 42.1076 29.418 41.6694C28.9141 41.2777 28.4774 40.9391 27.5726 40.9391C26.6679 40.9391 26.2334 41.2777 25.7273 41.6694C25.1607 42.1076 24.5202 42.6055 23.2751 42.6055C22.0322 42.6055 21.3895 42.1076 20.8251 41.6694C20.3212 41.2777 19.8845 40.9414 18.982 40.9414C18.0773 40.9414 17.6428 41.2799 17.1389 41.6694C16.5723 42.1076 15.9318 42.6055 14.6889 42.6055C13.446 42.6055 12.8033 42.1076 12.2389 41.6694C11.7351 41.2777 11.2984 40.9414 10.3959 40.9414C9.49335 40.9414 9.05665 41.2799 8.55277 41.6694C7.98618 42.1076 7.34569 42.6055 6.10278 42.6055C4.85987 42.6055 4.21938 42.1076 3.65279 41.6694C3.14891 41.2777 2.71445 40.9414 1.8097 40.9414C1.53872 40.9414 1.31702 40.7245 1.31702 40.4545C1.31702 40.1868 1.53648 39.9677 1.8097 39.9677C3.05261 39.9677 3.6931 40.4656 4.25969 40.9037C4.76357 41.2954 5.19803 41.6318 6.10278 41.6318C7.00753 41.6318 7.44199 41.2932 7.94587 40.9037C8.51246 40.4656 9.15295 39.9677 10.3959 39.9677C11.6388 39.9677 12.2815 40.4656 12.8458 40.9037C13.3497 41.2954 13.7864 41.6318 14.6889 41.6318C15.5937 41.6318 16.0281 41.2932 16.532 40.9015C17.0986 40.4634 17.7391 39.9655 18.982 39.9655C20.2249 39.9655 20.8677 40.4634 21.432 40.9015C21.9359 41.2932 22.3726 41.6296 23.2751 41.6296C24.1798 41.6296 24.6143 41.291 25.1204 40.8993C25.687 40.4612 26.3275 39.9633 27.5726 39.9633C28.8156 39.9633 29.4583 40.4612 30.0249 40.8993C30.5288 41.291 30.9655 41.6296 31.8702 41.6296C32.1412 41.6296 32.3629 41.8464 32.3629 42.1164C32.3629 42.3864 32.1412 42.6055 31.8702 42.6055Z" fill="#50E5FF" />
        <path d="M40.0049 38.6422C41.2501 38.6422 41.8906 38.1447 42.4572 37.7069C42.961 37.3156 43.3977 36.9773 44.3025 36.9773C45.2072 36.9773 45.6417 37.3156 46.1478 37.7069C46.7144 38.1447 47.3549 38.6422 48.6 38.6422C49.8429 38.6422 50.4857 38.1447 51.05 37.7069C51.5539 37.3156 51.9906 36.9773 52.8931 36.9773C53.7979 36.9773 54.2323 37.3156 54.7362 37.7047C55.3028 38.1425 55.9433 38.64 57.1862 38.64C58.4291 38.64 59.0718 38.1425 59.6362 37.7047C60.1401 37.3134 60.5768 36.9773 61.4793 36.9773C62.3818 36.9773 62.8185 37.3156 63.3224 37.7047C63.8889 38.1425 64.5294 38.64 65.7723 38.64C67.0153 38.64 67.6557 38.1425 68.2223 37.7047C68.7262 37.3134 69.1607 36.9773 70.0654 36.9773C70.3364 36.9773 70.5581 36.7606 70.5581 36.4909C70.5581 36.2233 70.3386 36.0044 70.0654 36.0044C68.8225 36.0044 68.182 36.5019 67.6154 36.9397C67.1116 37.331 66.6771 37.6671 65.7723 37.6671C64.8676 37.6671 64.4331 37.3288 63.9293 36.9397C63.3627 36.5019 62.7222 36.0044 61.4793 36.0044C60.2364 36.0044 59.5936 36.5019 59.0293 36.9397C58.5254 37.331 58.0887 37.6671 57.1862 37.6671C56.2814 37.6671 55.847 37.3288 55.3431 36.9375C54.7765 36.4997 54.136 36.0022 52.8931 36.0022C51.6502 36.0022 51.0075 36.4997 50.4431 36.9375C49.9392 37.3288 49.5025 37.6649 48.6 37.6649C47.6953 37.6649 47.2608 37.3266 46.7547 36.9353C46.1881 36.4975 45.5476 36 44.3025 36C43.0573 36 42.4168 36.4975 41.8503 36.9353C41.3464 37.3266 40.9097 37.6649 40.0049 37.6649C39.7339 37.6649 39.5122 37.8816 39.5122 38.1513C39.5145 38.4233 39.7339 38.6422 40.0049 38.6422Z" fill="#50E5FF" />
        <path d="M40.225 42.6055C41.4702 42.6055 42.1107 42.1076 42.6772 41.6694C43.1811 41.2777 43.6178 40.9391 44.5226 40.9391C45.4273 40.9391 45.8618 41.2777 46.3679 41.6694C46.9345 42.1076 47.575 42.6055 48.8201 42.6055C50.063 42.6055 50.7058 42.1076 51.2701 41.6694C51.774 41.2777 52.2107 40.9414 53.1132 40.9414C54.018 40.9414 54.4524 41.2799 54.9563 41.6694C55.5229 42.1076 56.1634 42.6055 57.4063 42.6055C58.6492 42.6055 59.2919 42.1076 59.8563 41.6694C60.3602 41.2777 60.7969 40.9414 61.6994 40.9414C62.6019 40.9414 63.0386 41.2799 63.5424 41.6694C64.109 42.1076 64.7495 42.6055 65.9924 42.6055C67.2353 42.6055 67.8758 42.1076 68.4424 41.6694C68.9463 41.2777 69.3808 40.9414 70.2855 40.9414C70.5565 40.9414 70.7782 40.7245 70.7782 40.4545C70.7782 40.1868 70.5587 39.9677 70.2855 39.9677C69.0426 39.9677 68.4021 40.4656 67.8355 40.9037C67.3316 41.2954 66.8972 41.6318 65.9924 41.6318C65.0877 41.6318 64.6532 41.2932 64.1493 40.9037C63.5828 40.4656 62.9423 39.9677 61.6994 39.9677C60.4565 39.9677 59.8137 40.4656 59.2494 40.9037C58.7455 41.2954 58.3088 41.6318 57.4063 41.6318C56.5015 41.6318 56.0671 41.2932 55.5632 40.9015C54.9966 40.4634 54.3561 39.9655 53.1132 39.9655C51.8703 39.9655 51.2276 40.4634 50.6632 40.9015C50.1593 41.2932 49.7226 41.6296 48.8201 41.6296C47.9154 41.6296 47.4809 41.291 46.9748 40.8993C46.4082 40.4612 45.7677 39.9633 44.5226 39.9633C43.2797 39.9633 42.6369 40.4612 42.0703 40.8993C41.5665 41.291 41.1298 41.6296 40.225 41.6296C39.954 41.6296 39.7323 41.8464 39.7323 42.1164C39.7323 42.3864 39.954 42.6055 40.225 42.6055Z" fill="#50E5FF" />
        <path d="M41.0799 62.6268L35.9555 59.4614L30.9241 62.6268H30.9201C28.5519 57.2438 27 48.2059 27 37.9689C27 21.4716 31.0292 8.09998 36 8.09998C40.9708 8.09998 45 21.4716 45 37.9689C45 48.2103 43.4481 57.2438 41.0799 62.6268Z" fill="#FFB811" />
        <path d="M36.6819 8.09998H35.1819V60.4636H36.6819V8.09998Z" fill="#243A5E" />
        <defs>
            <clipPath id="clip0" />
            <rect width="72" height="72" fill="white" />
        </defs>
    </g>
</svg>

<svg width="80" height="80" viewBox="0 0 72 72" fill="none" xmlns="http://www.w3.org/2000/svg"><path d="M36 68.037c17.693 0 32.037-14.344 32.037-32.037S53.693 3.963 36 3.963 3.963 18.307 3.963 36 18.307 68.037 36 68.037" fill="#0078D3"/><circle cx="36" cy="36" r="35.4" fill="#243A5E"/><path d="M32.09 38.642c-1.245 0-1.885-.497-2.452-.935-.504-.391-.94-.73-1.845-.73s-1.34.339-1.845.73c-.567.438-1.207.935-2.453.935-1.243 0-1.885-.497-2.45-.935-.504-.391-.94-.73-1.843-.73-.905 0-1.339.339-1.843.728-.566.438-1.207.935-2.45.935s-1.886-.498-2.45-.935c-.504-.392-.94-.728-1.843-.728-.902 0-1.34.339-1.843.728-.567.438-1.207.935-2.45.935s-1.883-.498-2.45-.935c-.504-.392-.938-.728-1.843-.728a.49.49 0 0 1-.493-.486.49.49 0 0 1 .493-.487c1.243 0 1.883.498 2.45.936.504.391.938.727 1.843.727s1.34-.338 1.843-.727c.567-.438 1.207-.936 2.45-.936s1.886.498 2.45.936c.504.391.94.727 1.843.727.905 0 1.34-.338 1.843-.73.567-.437 1.207-.935 2.45-.935s1.886.498 2.45.935c.504.392.94.728 1.843.728.905 0 1.34-.338 1.846-.73.566-.437 1.207-.935 2.452-.935s1.886.498 2.452.935c.504.392.94.73 1.845.73a.49.49 0 0 1 .493.486.493.493 0 0 1-.493.491M31.87 42.606c-1.245 0-1.885-.498-2.452-.937-.504-.391-.94-.73-1.845-.73s-1.34.339-1.846.73c-.566.439-1.207.937-2.452.937-1.243 0-1.885-.498-2.45-.937-.504-.391-.94-.728-1.843-.728-.905 0-1.34.339-1.843.728-.567.439-1.207.937-2.45.937s-1.886-.498-2.45-.937c-.504-.391-.94-.728-1.843-.728s-1.34.339-1.843.728c-.567.439-1.207.937-2.45.937s-1.884-.498-2.45-.937c-.504-.391-.939-.728-1.843-.728a.49.49 0 0 1-.493-.486.49.49 0 0 1 .493-.487c1.243 0 1.883.498 2.45.936.504.391.938.728 1.843.728s1.339-.339 1.843-.728c.566-.438 1.207-.936 2.45-.936s1.885.498 2.45.936c.504.391.94.728 1.843.728.905 0 1.34-.339 1.843-.73.567-.439 1.207-.937 2.45-.937s1.886.498 2.45.936c.504.392.94.729 1.843.729.905 0 1.34-.339 1.845-.73.567-.439 1.207-.937 2.453-.937 1.243 0 1.885.498 2.452.936.504.392.94.73 1.845.73a.49.49 0 0 1 .493.487c0 .27-.222.49-.493.49M40.005 38.642c1.245 0 1.886-.497 2.452-.935.504-.391.94-.73 1.846-.73.904 0 1.339.339 1.845.73.566.438 1.207.935 2.452.935 1.243 0 1.886-.497 2.45-.935.504-.391.94-.73 1.843-.73.905 0 1.34.339 1.843.728.567.438 1.207.935 2.45.935s1.886-.498 2.45-.935c.504-.392.94-.728 1.843-.728s1.34.339 1.843.728c.567.438 1.207.935 2.45.935s1.884-.498 2.45-.935c.504-.392.939-.728 1.843-.728a.49.49 0 0 0 .493-.486.49.49 0 0 0-.493-.487c-1.242 0-1.883.498-2.45.936-.503.391-.938.727-1.843.727-.904 0-1.339-.338-1.843-.727-.566-.438-1.207-.936-2.45-.936s-1.885.498-2.45.936c-.504.391-.94.727-1.843.727-.905 0-1.339-.338-1.843-.73-.567-.437-1.207-.935-2.45-.935s-1.886.498-2.45.935c-.504.392-.94.728-1.843.728-.905 0-1.34-.338-1.845-.73-.567-.437-1.207-.935-2.453-.935s-1.885.498-2.452.935c-.504.392-.94.73-1.845.73a.49.49 0 0 0-.493.486c.002.272.222.491.493.491M40.225 42.606c1.245 0 1.886-.498 2.452-.937.504-.391.94-.73 1.846-.73.904 0 1.339.339 1.845.73.566.439 1.207.937 2.452.937 1.243 0 1.886-.498 2.45-.937.504-.391.94-.728 1.843-.728.905 0 1.34.339 1.843.728.567.439 1.207.937 2.45.937s1.886-.498 2.45-.937c.504-.391.94-.728 1.843-.728s1.34.339 1.843.728c.567.439 1.207.937 2.45.937s1.884-.498 2.45-.937c.504-.391.939-.728 1.844-.728a.49.49 0 0 0 .492-.486.49.49 0 0 0-.493-.487c-1.242 0-1.883.498-2.45.936-.503.391-.938.728-1.843.728-.904 0-1.339-.339-1.843-.728-.566-.438-1.207-.936-2.45-.936-1.242 0-1.885.498-2.45.936-.504.391-.94.728-1.843.728-.904 0-1.339-.339-1.843-.73-.566-.439-1.207-.937-2.45-.937s-1.885.498-2.45.936c-.504.392-.94.729-1.843.729-.905 0-1.34-.339-1.845-.73-.567-.439-1.207-.937-2.452-.937-1.243 0-1.886.498-2.453.936-.504.392-.94.73-1.845.73a.49.49 0 0 0-.493.487c0 .27.222.49.493.49" fill="#50E5FF"/><path d="m41.08 62.627-5.124-3.166-5.032 3.166h-.004C28.552 57.244 27 48.206 27 37.969 27 21.472 31.03 8.1 36 8.1s9 13.372 9 29.869c0 10.241-1.552 19.275-3.92 24.658" fill="#FFB811"/><path d="M36.682 8.1h-1.5v52.364h1.5z" fill="#243A5E"/></svg>
